X:1
T:O Durchbrecher, 87.87 D
T:O Durchbrecher, 87.87 D
T:Neues Geistreiches Gesangbuch (Hall
T:Public Domain Courtesy of the Cyber Hymnal™
C:Neues Geistreiches Gesangbuch (Hall
Z:Public Domain
Z:Courtesy of the Cyber Hymnal™
%%score ( 1 2 ) ( 3 4 )
L:1/8
Q:1/4=113
M:4/4
K:D
V:1 treble 
V:2 treble 
V:3 bass 
V:4 bass 
V:1
 [A,D]2 [CE]2 [DF]2 E2 | [DF]2 [E^G]2 [EA]2 [EA]2 | [Dd]2 [Fd]2 [Ec]2 [Dd]2 | [Ec]2 [EB]2 [CA]4 | %4
 [A,D]2 [CE]2 [DF]2 E2 | [DF]2 [E^G]2 [EA]2 [EA]2 | [Dd]2 [Fd]2 [Ec]2 [Dd]2 | [Ec]2 [EB]2 [CA]4 | %8
 [Dd]2 [DA]2 [DB]2 [EB]2 | [EA]3 [CG] [DF]2 D2 | [DF]2 [DF]2 [EA]2 [FA]2 | [DG]2 [DF]2 [CE]4 | %12
 [EA]2 [FA]2 [EG]2 [^DF]2 | [EG]3 [EA] [DF]2 D2 | [B,E]2 [^DF]2 [EG]2 [EA]2 | [DF]2 [CE]2 [A,D]4 |] %16
V:2
 x6 E2 | x8 | x8 | x8 | x6 E2 | x8 | x8 | x8 | x8 | x6 D2 | x8 | x8 | x8 | x6 D2 | x8 | x8 |] %16
V:3
 [D,F,]2 [A,,A,]2 [D,A,]2 [C,A,]2 | [D,A,]2 [B,,D]2 [A,,D]2 [A,,C]2 | %2
 [F,A,]2 [D,A,]2 [A,,A,]2 [B,,F,]2 | [C,A,]2 [E,^G,]2 [A,,A,]4 | [D,F,]2 [A,,A,]2 [D,A,]2 [C,A,]2 | %5
 [D,A,]2 [B,,D]2 [A,,D]2 [A,,C]2 | [F,A,]2 [D,A,]2 [A,,A,]2 [B,,F,]2 | [C,A,]2 [E,^G,]2 [A,,A,]4 | %8
 [F,A,]2 [D,F,]2 G,2 [E,G,]2 | [C,A,]3 [A,,A,] [D,A,]2 [D,F,]2 | [D,A,]2 [B,,B,]2 [C,A,]2 [D,D]2 | %11
 [G,,B,]2 [D,A,]2 [A,,A,]4 | [C,A,]2 [D,D]2 [E,B,]2 [B,,B,]2 | [E,B,]3 [C,A,] [D,A,]2 [D,F,]2 | %14
 [G,B,]2 [F,A,]2 [E,B,]2 [C,A,]2 | [D,A,]2 [A,,A,]2 [D,F,]4 |] %16
V:4
 x8 | x8 | x8 | x8 | x8 | x8 | x8 | x8 | x4 G,2 x2 | x8 | x8 | x8 | x8 | x8 | x8 | x8 |] %16

